X: 33887
T: Red Island Tune
R: polka
M: 2/4
K: Gmajor
|:G2 GA|BA B2|AA GA|Bd A2|
G2 GA|BA B2|AA BA|G2 G2:|
|:ef ed|BA B2|AA GA|Bd Bd|
ef ed|BA B2|AA BA|G2 G2:|

